img/svg/wedding.svg

<?xml version="1.0" encoding="UTF-8"?>
<svg width="81px" height="80px" viewBox="0 0 81 80" version="1.1" xmlns="http://www.w3.org/2000/svg" xmlns:xlink="http://www.w3.org/1999/xlink">
    <!-- Generator: Sketch 52.6 (67491) - http://www.bohemiancoding.com/sketch -->
    <title>wedding</title>
    <desc>Created with Sketch.</desc>
    <g id="Quentia-Index-1.5" stroke="none" stroke-width="1" fill="none" fill-rule="evenodd">
        <g id="index-MENU-CLICKED-2" transform="translate(-336.000000, -1879.000000)" fill-rule="nonzero">
            <g id="Group-18" transform="translate(335.000000, 1871.000000)">
                <g id="Group-14">
                    <g id="wedding" transform="translate(1.000000, 8.000000)">
                        <path d="M79.3548387,46.6451613 C77.8709677,40.4516129 74.1290323,34.9677419 68.9677419,31.2258065 C64.0645161,27.6774194 58.0645161,25.8709677 52,26.1290323 C49.2258065,20.1935484 44.3870968,15.4193548 38.3225806,12.7741935 C37.7419355,12.516129 37.0322581,12.7741935 36.7741935,13.3548387 C36.516129,13.9354839 36.7741935,14.6451613 37.3548387,14.9032258 C43.1612903,17.4193548 47.6774194,22 50.1935484,27.7419355 C50.7096774,29.0322581 51.1612903,30.3225806 51.483871,31.6774194 C51.5483871,32 51.6774194,32.3870968 51.7419355,32.7741935 C51.7419355,32.7741935 51.7419355,32.7741935 51.7419355,32.7741935 C52.9032258,38.7741935 51.8064516,45.0322581 48.5806452,50.2580645 C45.6129032,55.2258065 40.9677419,58.9677419 35.483871,60.7741935 C35.3548387,60.5806452 35.2903226,60.3225806 35.2258065,60.0645161 C35.2258065,60.0645161 35.2258065,60.0645161 35.2258065,60.0645161 C35.0322581,59.6129032 34.9032258,59.1612903 34.7741935,58.7096774 C34.7741935,58.6451613 34.7741935,58.6451613 34.7096774,58.5806452 C34.6451613,58.3870968 34.5806452,58.1290323 34.516129,57.9354839 C34.516129,57.9354839 34.516129,57.9354839 34.516129,57.9354839 C44.8387097,54.4516129 51.0322581,43.7419355 48.7741935,32.9677419 C48.7741935,32.9677419 48.7741935,32.9677419 48.7741935,32.9677419 C48.7096774,32.7096774 48.6451613,32.4516129 48.6451613,32.2580645 C48.2580645,30.6451613 47.6774194,29.0967742 46.9677419,27.6129032 C46.9677419,27.6129032 46.9677419,27.6129032 46.9677419,27.6129032 C46.9677419,27.6129032 46.9677419,27.6129032 46.9677419,27.6129032 C44.7741935,23.3548387 41.2258065,19.8709677 36.8387097,17.8064516 C34.7741935,16.8387097 32.516129,16.1935484 30.2580645,15.9354839 L38.6451613,8.12903226 C39.0967742,7.74193548 39.1612903,7.09677419 38.8387097,6.58064516 C38.8387097,6.58064516 38.8387097,6.58064516 38.8387097,6.58064516 L34.9677419,0.838709677 C34.7741935,0.516129032 34.3870968,0.322580645 34,0.322580645 L21.3548387,0.322580645 C20.9677419,0.322580645 20.5806452,0.516129032 20.3870968,0.838709677 L16.516129,6.64516129 C16.1935484,7.09677419 16.2580645,7.74193548 16.7096774,8.19354839 L25.0967742,16 C24.2580645,16.1290323 23.4193548,16.2580645 22.5806452,16.4516129 C10.9677419,19.2903226 3.87096774,31.0322581 6.64516129,42.5806452 C7.80645161,47.3548387 10.5806452,51.6129032 14.516129,54.6451613 C18.1290323,57.4193548 22.4516129,58.9677419 26.9677419,59.0967742 C26.9677419,59.1612903 27.0322581,59.2903226 27.0322581,59.3548387 C27.0967742,59.5483871 27.1612903,59.8064516 27.2258065,60 C27.2258065,60.0645161 27.2258065,60.1290323 27.2903226,60.1290323 C27.3548387,60.3225806 27.3548387,60.4516129 27.4193548,60.6451613 C27.4193548,60.7096774 27.4193548,60.7096774 27.483871,60.7741935 C27.5483871,60.9677419 27.6129032,61.1612903 27.6774194,61.2903226 C27.6774194,61.2903226 27.6774194,61.3548387 27.6774194,61.3548387 C27.7419355,61.5483871 27.8064516,61.8064516 27.8709677,62 C22.7096774,62 17.5483871,60.3870968 13.2903226,57.3548387 C8.4516129,54 5.09677419,48.9677419 3.67741935,43.2903226 C2.32258065,37.6129032 2.96774194,31.6129032 5.61290323,26.3870968 C8.19354839,21.2258065 12.516129,17.1612903 17.8064516,14.8387097 C18.3870968,14.5806452 18.7096774,13.8709677 18.4516129,13.2903226 C18.1935484,12.7096774 17.483871,12.3870968 16.9032258,12.6451613 C11.1612903,15.1612903 6.38709677,19.6129032 3.5483871,25.2903226 C0.64516129,31.0322581 -0.129032258,37.6129032 1.41935484,43.8709677 C2.96774194,50.1290323 6.64516129,55.6129032 11.8064516,59.3548387 C16.4516129,62.7096774 21.9354839,64.4516129 27.6129032,64.4516129 C28,64.4516129 28.3225806,64.4516129 28.7096774,64.4516129 C33.1612903,73.9354839 42.7741935,80 53.1612903,80 C55.2903226,80 57.4193548,79.7419355 59.5483871,79.2258065 C74,75.6774194 82.9032258,61.0967742 79.3548387,46.6451613 Z M50.6451613,51.483871 C53.8709677,46.1290323 55.1612903,39.8709677 54.3225806,33.7419355 C58.1935484,34 61.8709677,35.3548387 64.9677419,37.7419355 C68.4516129,40.4516129 70.8387097,44.1290323 71.8709677,48.3870968 C74.3870968,58.7096774 68,69.1612903 57.6774194,71.6774194 C52.6451613,72.9032258 47.483871,72.0645161 43.0967742,69.4193548 C40.3870968,67.7419355 38.1290323,65.483871 36.5806452,62.8387097 C42.4516129,60.8387097 47.4193548,56.8387097 50.6451613,51.483871 Z M34.0645161,55.6774194 C33.483871,51.3548387 34.3225806,47.0322581 36.516129,43.2258065 C38.8387097,39.2903226 42.4516129,36.3225806 46.7096774,34.8387097 C48,43.8709677 42.6451613,52.6451613 34.0645161,55.6774194 Z M22,2.70967742 L33.2903226,2.70967742 L35.5483871,6.12903226 L19.6774194,6.12903226 L22,2.70967742 Z M20.4516129,8.51612903 L34.7741935,8.51612903 L27.6129032,15.1612903 L20.4516129,8.51612903 Z M26.4516129,56.7096774 C22.6451613,56.4516129 18.9677419,55.0967742 15.8709677,52.7741935 C12.3225806,50.0645161 9.93548387,46.3870968 8.90322581,42.0645161 C6.38709677,31.7419355 12.7741935,21.2903226 23.0967742,18.7741935 C27.4193548,17.7419355 31.8064516,18.1935484 35.8709677,20.0645161 C39.3548387,21.6774194 42.2580645,24.3870968 44.2580645,27.6129032 C38.1935484,29.7419355 33.1612903,33.9354839 29.8709677,39.5483871 C26.7741935,44.7741935 25.6129032,50.7741935 26.4516129,56.7096774 Z M58.9677419,76.9032258 C57.0322581,77.3548387 55.0967742,77.6129032 53.1612903,77.6129032 C43.3548387,77.6129032 34.3225806,71.7419355 30.516129,62.5806452 C30.4516129,62.4516129 30.4516129,62.3870968 30.3870968,62.2580645 C30.3870968,62.1935484 30.3225806,62.1935484 30.3225806,62.1290323 C30.2580645,62 30.1935484,61.8709677 30.1935484,61.7419355 C30.1935484,61.7419355 30.1935484,61.6774194 30.1935484,61.6774194 C30.1290323,61.5483871 30.0645161,61.3548387 30,61.2258065 C30,61.2258065 30,61.2258065 30,61.2258065 C29.9354839,61.0967742 29.8709677,60.9032258 29.8064516,60.7741935 C29.8064516,60.7741935 29.8064516,60.7741935 29.8064516,60.7741935 C29.7419355,60.6451613 29.6774194,60.516129 29.6774194,60.3225806 C29.6774194,60.3225806 29.6774194,60.3225806 29.6774194,60.2580645 C29.6129032,60.1290323 29.6129032,59.9354839 29.5483871,59.8064516 C29.5483871,59.7419355 29.5483871,59.6774194 29.483871,59.6774194 C29.4193548,59.5483871 29.4193548,59.4193548 29.4193548,59.3548387 C29.3548387,59.1612903 29.3548387,59.0322581 29.2903226,58.8387097 C29.2258065,58.6451613 29.2258065,58.516129 29.1612903,58.3225806 C29.1612903,58.2580645 29.1612903,58.1935484 29.0967742,58.1290323 C29.0967742,58.0645161 29.0322581,58 29.0322581,57.8709677 C29.0322581,57.8064516 29.0322581,57.7419355 29.0322581,57.7419355 C29.0322581,57.7419355 29.0322581,57.7419355 29.0322581,57.7419355 C27.8709677,51.8709677 28.9032258,45.8709677 31.8709677,40.7096774 C34.9032258,35.483871 39.6129032,31.6129032 45.2903226,29.7419355 C45.6774194,30.6451613 46,31.6129032 46.2580645,32.516129 C41.2903226,34.1935484 37.1612903,37.5483871 34.516129,42.0645161 C31.7419355,46.7096774 30.9032258,52.1935484 32,57.483871 C32,57.483871 32,57.483871 32,57.483871 C32,57.483871 32,57.483871 32,57.483871 C32,57.5483871 32.0645161,57.6774194 32.0645161,57.7419355 C32.0645161,57.8709677 32.1290323,58 32.1290323,58.1290323 C32.1935484,58.3225806 32.1935484,58.516129 32.2580645,58.7096774 C32.2580645,58.7741935 32.2580645,58.7741935 32.3225806,58.8387097 C32.3870968,58.9677419 32.3870968,59.1612903 32.4516129,59.2903226 C32.4516129,59.3548387 32.4516129,59.3548387 32.516129,59.4193548 C32.5806452,59.5483871 32.5806452,59.7419355 32.6451613,59.8709677 C32.6451613,59.8709677 32.6451613,59.9354839 32.6451613,59.9354839 C32.7096774,60.1290323 32.7741935,60.2580645 32.8387097,60.4516129 C32.8387097,60.4516129 32.8387097,60.4516129 32.8387097,60.4516129 C34.516129,65.0322581 37.6774194,68.9032258 41.8709677,71.4193548 C45.2903226,73.483871 49.1612903,74.5806452 53.0967742,74.5806452 C54.8387097,74.5806452 56.516129,74.3870968 58.2580645,73.9354839 C69.8709677,71.0967742 76.9677419,59.3548387 74.1935484,47.8064516 C73.0322581,42.9677419 70.3225806,38.8387097 66.4516129,35.8064516 C62.8387097,33.0322581 58.4516129,31.4193548 53.9354839,31.2903226 C53.9354839,31.2258065 53.8709677,31.0967742 53.8709677,31.0322581 C53.6774194,30.1290323 53.3548387,29.2258065 53.0322581,28.3225806 C58.2580645,28.3225806 63.3548387,29.9354839 67.6129032,33.0322581 C72.3225806,36.4516129 75.6774194,41.483871 77.0967742,47.0967742 C80.3225806,60.3870968 72.1935484,73.7419355 58.9677419,76.9032258 Z" id="Shape" fill="#000000"></path>
                        <path d="M63.2903226,16.9032258 C62.8387097,17.2903226 62.3225806,17.7419355 61.8064516,18.1935484 C61.2903226,17.7419355 60.7741935,17.2903226 60.3225806,16.9032258 C57.4193548,14.3870968 55.483871,12.7741935 55.483871,10.5806452 C55.483871,9.67741935 55.8064516,8.83870968 56.3225806,8.25806452 C56.8387097,7.61290323 57.6129032,7.29032258 58.4516129,7.29032258 C59.6129032,7.29032258 60.3870968,8 60.7741935,8.58064516 C61.1612903,9.09677419 61.3548387,9.67741935 61.4193548,9.87096774 C61.483871,10.0645161 61.6129032,10.1935484 61.8064516,10.1935484 C62,10.1935484 62.1290323,10.0645161 62.1935484,9.87096774 C62.2580645,9.67741935 62.4516129,9.09677419 62.8387097,8.58064516 C63.2903226,8 64,7.29032258 65.1612903,7.29032258 C66,7.29032258 66.7741935,7.61290323 67.2903226,8.25806452 C67.8064516,8.90322581 68.1290323,9.67741935 68.1290323,10.5806452 C68.1290323,12.7096774 66.1935484,14.3870968 63.2903226,16.9032258 Z M65.1612903,6.38709677 C63.6129032,6.38709677 62.7096774,7.29032258 62.1290323,8.06451613 C62,8.25806452 61.8709677,8.4516129 61.7419355,8.64516129 C61.6129032,8.4516129 61.5483871,8.25806452 61.3548387,8.06451613 C60.8387097,7.29032258 59.8709677,6.38709677 58.3225806,6.38709677 C57.2258065,6.38709677 56.2580645,6.83870968 55.5483871,7.61290323 C54.8387097,8.38709677 54.516129,9.41935484 54.516129,10.516129 C54.516129,11.7419355 54.9677419,12.8387097 56,14 C56.9032258,15.0967742 58.1935484,16.1935484 59.6774194,17.4193548 C60.2580645,17.8709677 60.8387097,18.3870968 61.4193548,18.9032258 C61.483871,18.9677419 61.6129032,19.0322581 61.6774194,19.0322581 C61.7419355,19.0322581 61.8709677,18.9677419 61.9354839,18.9032258 C62.5806452,18.3870968 63.0967742,17.8709677 63.6774194,17.4193548 C65.1612903,16.1290323 66.4516129,15.0322581 67.3548387,14 C68.3870968,12.7741935 68.8387097,11.6774194 68.8387097,10.516129 C68.8387097,9.41935484 68.4516129,8.38709677 67.8064516,7.61290323 C67.2258065,6.83870968 66.2580645,6.38709677 65.1612903,6.38709677 Z" id="Shape" fill="#040006"></path>
                    </g>
                </g>
            </g>
        </g>
    </g>
</svg>

<svg width="81" height="80" viewBox="0 0 81 80" xmlns="http://www.w3.org/2000/svg"><title>wedding</title><g fill-rule="nonzero" fill="none"><path d="M79.355 46.645c-1.484-6.193-5.226-11.677-10.387-15.42A27.037 27.037 0 0 0 52 26.13a27.051 27.051 0 0 0-13.677-13.355c-.581-.258-1.29 0-1.549.58-.258.581 0 1.291.58 1.55 5.807 2.515 10.323 7.096 12.84 12.838.516 1.29.967 2.58 1.29 3.935.064.323.193.71.258 1.097 1.161 6 .064 12.258-3.161 17.484a24.032 24.032 0 0 1-13.097 10.516c-.13-.193-.194-.451-.258-.71-.194-.451-.323-.903-.452-1.354 0-.065 0-.065-.064-.13-.065-.193-.13-.451-.194-.645 10.323-3.483 16.516-14.193 14.258-24.967-.064-.258-.129-.516-.129-.71-.387-1.613-.968-3.161-1.677-4.645-2.194-4.258-5.742-7.742-10.13-9.807a21.349 21.349 0 0 0-6.58-1.87l8.387-7.807c.452-.387.516-1.032.194-1.548L34.968.839c-.194-.323-.58-.516-.968-.516H21.355c-.387 0-.774.193-.968.516l-3.87 5.806c-.323.452-.259 1.097.193 1.549L25.097 16c-.839.129-1.678.258-2.516.452C10.968 19.29 3.87 31.032 6.645 42.58a21.732 21.732 0 0 0 7.871 12.064c3.613 2.774 7.936 4.323 12.452 4.452 0 .064.064.193.064.258.065.193.13.451.194.645 0 .065 0 .129.064.129.065.194.065.323.13.516 0 .065 0 .065.064.13.064.193.129.386.193.515v.065c.065.193.13.451.194.645-5.161 0-10.323-1.613-14.58-4.645C8.45 54 5.096 48.968 3.676 43.29c-1.354-5.677-.71-11.677 1.936-16.903 2.58-5.161 6.903-9.226 12.193-11.548.581-.258.904-.968.646-1.549-.258-.58-.968-.903-1.549-.645-5.742 2.516-10.516 6.968-13.355 12.645C.645 31.032-.129 37.613 1.42 43.871c1.549 6.258 5.226 11.742 10.387 15.484 4.646 3.355 10.13 5.097 15.807 5.097h1.097C33.16 73.935 42.774 80 53.16 80c2.13 0 4.258-.258 6.387-.774C74 75.677 82.903 61.096 79.355 46.646zm-28.71 4.839a27.227 27.227 0 0 0 3.678-17.742c3.87.258 7.548 1.613 10.645 4 3.484 2.71 5.87 6.387 6.903 10.645C74.387 58.71 68 69.161 57.677 71.677c-5.032 1.226-10.193.388-14.58-2.258-2.71-1.677-4.968-3.935-6.516-6.58 5.87-2 10.838-6 14.064-11.355zm-16.58 4.193a19.555 19.555 0 0 1 2.451-12.451c2.323-3.936 5.936-6.903 10.194-8.387C48 43.87 42.645 52.645 34.065 55.677zM22 2.71h11.29l2.258 3.419h-15.87L22 2.709zm-1.548 5.806h14.322l-7.161 6.645-7.161-6.645zm6 48.194a19.873 19.873 0 0 1-10.581-3.936c-3.548-2.71-5.936-6.387-6.968-10.71-2.516-10.322 3.871-20.774 14.194-23.29 4.322-1.032 8.71-.58 12.774 1.29 3.484 1.613 6.387 4.323 8.387 7.549-6.064 2.129-11.097 6.322-14.387 11.935-3.097 5.226-4.258 11.226-3.42 17.162zm32.516 20.193c-1.936.452-3.871.71-5.807.71-9.806 0-18.838-5.871-22.645-15.032-.064-.13-.064-.194-.129-.323 0-.064-.064-.064-.064-.129-.065-.129-.13-.258-.13-.387v-.065c-.064-.129-.128-.322-.193-.451-.065-.13-.129-.323-.194-.452-.064-.129-.129-.258-.129-.451v-.065c-.064-.129-.064-.323-.129-.452 0-.064 0-.129-.064-.129-.065-.129-.065-.258-.065-.322-.064-.194-.064-.323-.129-.516-.064-.194-.064-.323-.129-.516 0-.065 0-.13-.064-.194 0-.064-.065-.129-.065-.258v-.13c-1.161-5.87-.129-11.87 2.839-17.031 3.032-5.226 7.742-9.097 13.42-10.968.386.903.709 1.87.967 2.774a21.504 21.504 0 0 0-11.742 9.549C31.742 46.71 30.903 52.194 32 57.484c0 .064.065.193.065.258 0 .129.064.258.064.387.065.194.065.387.13.58 0 .065 0 .065.064.13.064.129.064.322.129.451 0 .065 0 .065.064.13.065.128.065.322.13.451v.064c.064.194.128.323.193.517 1.677 4.58 4.838 8.451 9.032 10.967 3.42 2.065 7.29 3.162 11.226 3.162 1.742 0 3.42-.194 5.161-.646 11.613-2.838 18.71-14.58 15.936-26.129-1.162-4.838-3.871-8.967-7.742-12-3.613-2.774-8-4.387-12.517-4.516 0-.064-.064-.193-.064-.258-.194-.903-.516-1.806-.839-2.71 5.226 0 10.323 1.613 14.58 4.71 4.71 3.42 8.065 8.452 9.485 14.065 3.226 13.29-4.903 26.645-18.13 29.806z" fill="#000"/><path d="M63.29 16.903c-.451.387-.967.839-1.484 1.29-.516-.451-1.032-.903-1.483-1.29-2.904-2.516-4.84-4.129-4.84-6.322 0-.904.323-1.742.84-2.323.516-.645 1.29-.968 2.129-.968 1.16 0 1.935.71 2.322 1.29.387.517.58 1.097.645 1.291.065.194.194.323.387.323.194 0 .323-.13.388-.323.064-.194.258-.774.645-1.29C63.29 8 64 7.29 65.16 7.29c.839 0 1.613.322 2.13.967.515.645.838 1.42.838 2.323 0 2.129-1.935 3.806-4.839 6.322zm1.871-10.516c-1.548 0-2.451.903-3.032 1.678l-.387.58c-.13-.193-.194-.387-.387-.58-.516-.775-1.484-1.678-3.032-1.678a3.708 3.708 0 0 0-2.775 1.226c-.71.774-1.032 1.806-1.032 2.903 0 1.226.452 2.323 1.484 3.484.903 1.097 2.194 2.194 3.677 3.42.581.451 1.162.967 1.742 1.483a.49.49 0 0 0 .258.13.49.49 0 0 0 .258-.13c.646-.516 1.162-1.032 1.742-1.484 1.484-1.29 2.775-2.387 3.678-3.419 1.032-1.226 1.484-2.323 1.484-3.484a4.553 4.553 0 0 0-1.033-2.903c-.58-.774-1.548-1.226-2.645-1.226z" fill="#040006"/></g></svg>
